Yaru++/actions/16/edit-select.svg

<svg height="16" width="16" xmlns="http://www.w3.org/2000/svg">
  <g fill="#808080">
    <path d="m1.0000031 13.5.5566406-.707031c.4303496-.54511.8761802-1.101848 1.2675781-1.677735.4285393-.631133.8137608-1.2448547 1.1542969-1.8398434.3237164-.5653638.5604515-1.144241.7421875-1.546875l.058594-.1289062-.058594-.1289063c-.181736-.402634-.4184711-.9815112-.7421875-1.546875-.3609444-.6277796-.7466892-1.2413085-1.1542969-1.8398435h.00195c-.3909679-.576838-.8385364-1.132598-1.2695312-1.677735l-.5566406-.705078v1.935547l.0625.08398c.2540138.332759.5231183.664463.7539093 1.001958h.00195c.2979964.435318.5768073.8825557.8398469 1.3398434l.00195.00195c.2811753.5020346.5444081 1.0124036.7890656 1.5332062v.00195c-.2055548.4366749-.527527 1.0776175-.7890625 1.5332063v.00195c-.2633955.4577747-.5456752.9058075-.84375 1.3417965h.00195c-.230863.337008-.5017334.66842-.7558562 1.001957l-.0625.08398z"/>
    <path d="m14.7792 1.7011715-.556641.707031c-.430349.54511-.87618 1.101848-1.267578 1.6777349-.428539.631133-.813761 1.244855-1.154297 1.839844-.323716.565363-.560451 1.144241-.742187 1.546875l-.05859.128906.05859.128906c.181736.4026341.418471.981511.742187 1.5468751.360945.62778.746689 1.2413085 1.154297 1.8398435h-.0019c.390918.576838.838487 1.132598 1.269481 1.677735l.556641.705078v-1.935547l-.0625-.08398c-.254014-.332759-.523118-.664463-.753909-1.001958h-.0019c-.297997-.435318-.576808-.8825555-.839847-1.3398435l-.002-.0019c-.281176-.502034-.544408-1.012403-.789066-1.533206v-.0019c.205555-.436675.527527-1.077617.789063-1.533206v-.002c.263445-.457775.545725-.905808.8438-1.341797h-.0019c.230863-.337008.501733-.66842.755856-1.001957l.0625-.08398z"/>
  </g>
</svg>

<?xml version="1.0" encoding="UTF-8" standalone="no"?>
<svg
   xmlns:dc="http://purl.org/dc/elements/1.1/"
   xmlns:cc="http://creativecommons.org/ns#"
   xmlns:rdf="http://www.w3.org/1999/02/22-rdf-syntax-ns#"
   xmlns:svg="http://www.w3.org/2000/svg"
   xmlns="http://www.w3.org/2000/svg"
   xmlns:sodipodi="http://sodipodi.sourceforge.net/DTD/sodipodi-0.dtd"
   xmlns:inkscape="http://www.inkscape.org/namespaces/inkscape"
   height="16"
   width="16"
   version="1.1"
   id="svg4"
   sodipodi:docname="edit-select-symbolic.svg"
   inkscape:version="0.92.4 (5da689c313, 2019-01-14)">
  <metadata
     id="metadata10">
    <rdf:RDF>
      <cc:Work
         rdf:about="">
        <dc:format>image/svg+xml</dc:format>
        <dc:type
           rdf:resource="http://purl.org/dc/dcmitype/StillImage" />
        <dc:title></dc:title>
      </cc:Work>
    </rdf:RDF>
  </metadata>
  <defs
     id="defs8" />
  <sodipodi:namedview
     pagecolor="#ffffff"
     bordercolor="#666666"
     borderopacity="1"
     objecttolerance="10"
     gridtolerance="10"
     guidetolerance="10"
     inkscape:pageopacity="0"
     inkscape:pageshadow="2"
     inkscape:window-width="1920"
     inkscape:window-height="1016"
     id="namedview6"
     showgrid="false"
     inkscape:zoom="52.4375"
     inkscape:cx="5.6123046"
     inkscape:cy="8"
     inkscape:window-x="0"
     inkscape:window-y="27"
     inkscape:window-maximized="1"
     inkscape:current-layer="svg4" />
  <path
     style="color:#000000;font-style:normal;font-variant:normal;font-weight:normal;font-stretch:normal;font-size:medium;line-height:normal;font-family:sans-serif;font-variant-ligatures:normal;font-variant-position:normal;font-variant-caps:normal;font-variant-numeric:normal;font-variant-alternates:normal;font-feature-settings:normal;text-indent:0;text-align:start;text-decoration:none;text-decoration-line:none;text-decoration-style:solid;text-decoration-color:#000000;letter-spacing:normal;word-spacing:normal;text-transform:none;writing-mode:lr-tb;direction:ltr;text-orientation:mixed;dominant-baseline:auto;baseline-shift:baseline;text-anchor:start;white-space:normal;shape-padding:0;clip-rule:nonzero;display:inline;overflow:visible;visibility:visible;opacity:1;isolation:auto;mix-blend-mode:normal;color-interpolation:sRGB;color-interpolation-filters:linearRGB;solid-color:#000000;solid-opacity:1;vector-effect:none;fill:#808080;fill-opacity:1;fill-rule:nonzero;stroke:none;stroke-width:0.625;stroke-linecap:butt;stroke-linejoin:miter;stroke-miterlimit:4;stroke-dasharray:none;stroke-dashoffset:0;stroke-opacity:1;color-rendering:auto;image-rendering:auto;shape-rendering:auto;text-rendering:auto;enable-background:accumulate"
     d="M 1.0000031,13.5 1.5566437,12.792969 C 1.9869933,12.247859 2.4328239,11.691121 2.8242218,11.115234 3.2527611,10.484101 3.6379826,9.8703793 3.9785187,9.2753906 4.3022351,8.7100268 4.5389702,8.1311496 4.7207062,7.7285156 L 4.7793002,7.5996094 4.7207062,7.4707031 C 4.5389702,7.0680691 4.3022351,6.4891919 3.9785187,5.9238281 3.6175743,5.2960485 3.2318295,4.6825196 2.8242218,4.0839846 h 0.00195 C 2.4352039,3.5071466 1.9876354,2.9513866 1.5566406,2.4062496 L 1,1.7011716 v 1.935547 l 0.0625,0.08398 c 0.2540138,0.332759 0.5231183,0.664463 0.7539093,1.001958 h 0.00195 C 2.1163557,5.1579746 2.3951666,5.6052123 2.6582062,6.0625 l 0.00195,0.00195 c 0.2811753,0.5020346 0.5444081,1.0124036 0.7890656,1.5332062 v 0.00195 C 3.243667,8.0362811 2.9216948,8.6772237 2.6601593,9.1328125 v 0.00195 C 2.3967638,9.5925372 2.1144841,10.04057 1.8164093,10.476559 h 0.00195 c -0.230863,0.337008 -0.5017334,0.66842 -0.7558562,1.001957 l -0.0625,0.08398 z"
     id="path817"
     inkscape:connector-curvature="0" />
  <path
     inkscape:connector-curvature="0"
     id="path821"
     d="m 14.7792,1.7011715 -0.556641,0.707031 c -0.430349,0.54511 -0.87618,1.101848 -1.267578,1.6777349 -0.428539,0.631133 -0.813761,1.244855 -1.154297,1.839844 -0.323716,0.565363 -0.560451,1.144241 -0.742187,1.546875 l -0.05859,0.128906 0.05859,0.128906 c 0.181736,0.4026341 0.418471,0.981511 0.742187,1.5468751 0.360945,0.62778 0.746689,1.2413085 1.154297,1.8398435 h -0.0019 c 0.390918,0.576838 0.838487,1.132598 1.269481,1.677735 L 14.779203,13.5 v -1.935547 l -0.0625,-0.08398 C 14.462689,11.147714 14.193585,10.81601 13.962794,10.478515 h -0.0019 C 13.662897,10.043197 13.384086,9.5959595 13.121047,9.1386715 l -0.002,-0.0019 c -0.281176,-0.502034 -0.544408,-1.012403 -0.789066,-1.533206 v -0.0019 c 0.205555,-0.436675 0.527527,-1.077617 0.789063,-1.533206 v -0.002 c 0.263445,-0.457775 0.545725,-0.905808 0.8438,-1.341797 h -0.0019 c 0.230863,-0.337008 0.501733,-0.66842 0.755856,-1.001957 l 0.0625,-0.08398 z"
     style="color:#000000;font-style:normal;font-variant:normal;font-weight:normal;font-stretch:normal;font-size:medium;line-height:normal;font-family:sans-serif;font-variant-ligatures:normal;font-variant-position:normal;font-variant-caps:normal;font-variant-numeric:normal;font-variant-alternates:normal;font-feature-settings:normal;text-indent:0;text-align:start;text-decoration:none;text-decoration-line:none;text-decoration-style:solid;text-decoration-color:#000000;letter-spacing:normal;word-spacing:normal;text-transform:none;writing-mode:lr-tb;direction:ltr;text-orientation:mixed;dominant-baseline:auto;baseline-shift:baseline;text-anchor:start;white-space:normal;shape-padding:0;clip-rule:nonzero;display:inline;overflow:visible;visibility:visible;opacity:1;isolation:auto;mix-blend-mode:normal;color-interpolation:sRGB;color-interpolation-filters:linearRGB;solid-color:#000000;solid-opacity:1;vector-effect:none;fill:#808080;fill-opacity:1;fill-rule:nonzero;stroke:none;stroke-width:0.625;stroke-linecap:butt;stroke-linejoin:miter;stroke-miterlimit:4;stroke-dasharray:none;stroke-dashoffset:0;stroke-opacity:1;color-rendering:auto;image-rendering:auto;shape-rendering:auto;text-rendering:auto;enable-background:accumulate" />
</svg>
